X: 1
T: Brandywine Quick Step  v.1
P: piffero primo a0091
O: camp dupont
F: http://ancients.sudburymuster.org/mus/ssp/pdf/brandywF.pdf
Z: 2019 John Chambers <jc:trillian.mit.edu>
M: 2/4
L: 1/16
K: G
d2 |\
g2g2 d2d2 | BABc d2B2 | G2G2 A2A2 | BABc B2d2 |\
g2g2 d2d2 | BABc d2B2 | G2G2 AGAB | G4 z2 :|
|: d2 |\
^c2c2 c2c2 | d^cde d2d2 | ^c2c2 c2c2 | d6 B2 |\
c2c2 c2A2 | B2B2 B2G2 | A2A2 A2B2 | G4 z2 :|
|: (GA) |\
.B2.B2 (B2c2) | TB2A2 A2(AB) | .c2.c2 (c2d2) | Tc2B2 B2(Bc) |\
.d2.d2 (d2e2) | .c2.c2 (c2d2) | B2(BG) A2(AF) | G4 z2 :|
